X: 1
T: Jenny Picking Cockles
R: reel
M: 4/4
L: 1/8
K: Gdor
=fagf dc~c2|Bcde =fefa|g2=fg dc~c2|Ac=fc AG~G2|
g2g=f dc~c2|Bcde =fefa|g2=fg dc~c2|Ac=fc AG~G2||
dgga bgag|^fdde fdcA|dgga bgag|^fdcA AG~G2|
dgga b2ag|^f2ga fdga|bgag ^fdeg|^fdcA AG~G2||


Tune 202	Setting 12865

